public/img/old-svg/money.svg

<svg width="16" height="13" viewBox="0 0 16 13" fill="none" xmlns="http://www.w3.org/2000/svg">
<path d="M12.7994 2.9231C13.3872 3.05255 13.7789 3.36205 13.936 3.89402C13.9687 4.01257 13.9844 4.13453 13.9828 4.25682C13.9855 6.26937 13.9855 8.28192 13.9828 10.2945C13.9847 10.468 13.9489 10.6402 13.8774 10.8008C13.806 10.9615 13.7004 11.1075 13.5667 11.2303C13.4331 11.3531 13.2741 11.4501 13.0991 11.5158C12.9241 11.5815 12.7366 11.6146 12.5475 11.613C9.40678 11.613 6.26604 11.613 3.1253 11.613C2.27375 11.613 1.65923 11.0478 1.65864 10.2662C1.65864 7.95448 1.65864 5.64294 1.65864 3.33159C1.65153 2.91807 1.73204 2.50722 1.89567 2.12188C2.19908 1.44142 2.75849 1.04598 3.54604 0.987238C4.22338 0.936653 4.90901 0.953515 5.58812 0.952427C7.49429 0.9488 9.40027 0.9488 11.306 0.952427C12.1884 0.952427 12.797 1.50996 12.7994 2.31661C12.8 2.5146 12.7994 2.71368 12.7994 2.9231ZM11.8512 2.90406C11.8512 2.70715 11.8512 2.52602 11.8512 2.34544C11.8512 1.98481 11.6735 1.82326 11.2829 1.82326H5.21004C4.76086 1.82326 4.31108 1.81674 3.86249 1.82653C3.13241 1.8423 2.64175 2.2905 2.67197 2.90406H11.8512ZM11.2657 6.39121C11.0546 6.3896 10.8476 6.44556 10.6711 6.55202C10.4946 6.65847 10.3565 6.81062 10.2743 6.98918C10.1921 7.16774 10.1695 7.36469 10.2094 7.55505C10.2492 7.74542 10.3498 7.92064 10.4982 8.05851C10.6467 8.19638 10.8364 8.2907 11.0433 8.32951C11.2502 8.36833 11.465 8.34988 11.6605 8.27653C11.856 8.20317 12.0234 8.0782 12.1414 7.91745C12.2594 7.7567 12.3228 7.56741 12.3235 7.37356C12.3245 7.11473 12.2137 6.86609 12.0155 6.682C11.8173 6.49792 11.5477 6.39337 11.2657 6.39121Z" fill="#C4C4C4"/>
</svg>

<svg width="16" height="13" viewBox="0 0 16 13" fill="none" xmlns="http://www.w3.org/2000/svg"><path d="M12.8 2.923c.587.13.979.439 1.136.971a1.3 1.3 0 01.047.363c.002 2.012.002 4.025 0 6.037a1.21 1.21 0 01-.106.507c-.071.16-.177.306-.31.43-.134.122-.293.22-.468.285a1.534 1.534 0 01-.552.097H3.125c-.851 0-1.466-.565-1.466-1.347V3.332a2.96 2.96 0 01.237-1.21c.303-.68.862-1.076 1.65-1.135.677-.05 1.363-.033 2.042-.035C7.494.95 9.4.95 11.306.952c.882 0 1.491.558 1.493 1.365v.606zm-.949-.019v-.559c0-.36-.178-.522-.568-.522H5.21c-.45 0-.899-.006-1.348.004-.73.015-1.22.464-1.19 1.077h9.18zm-.585 3.487a1.137 1.137 0 00-.595.161 1.004 1.004 0 00-.397.437.905.905 0 00-.065.566c.04.19.14.366.29.504.148.137.337.232.544.27.207.04.422.02.618-.052.195-.074.362-.199.48-.36a.924.924 0 00.182-.543.94.94 0 00-.308-.692 1.116 1.116 0 00-.75-.29z" fill="#C4C4C4"/></svg>
